X: 9390
T: Dandy Dancer, The
R: jig
M: 6/8
K: Gmajor
|:g/f/ed|B2 G GFG|DGG BAG|cAA EAA|fed cc/B/A|
BGG GFG|DGG BDG|cA/B/c f^ef|g3:|
|:d2 f|gdB GB/c/d|gfe dcB|cA/A/A eA/A/A|fdB cAf|
gdB gdB|gg/f/e dcB|cA/B/c f^ef|g3:|

